public/icons/Home.svg

<svg width="81" height="81" viewBox="0 0 81 81" fill="none" xmlns="http://www.w3.org/2000/svg">
<path fill-rule="evenodd" clip-rule="evenodd" d="M71.7083 36.0417C73.9579 36.041 76.1246 36.8906 77.7741 38.4202C79.4236 39.9498 80.434 42.0464 80.6027 44.2896L80.625 44.9583V71.7083C80.6257 73.9579 79.7761 76.1246 78.2465 77.7741C76.7169 79.4236 74.6203 80.434 72.3771 80.6027L71.7083 80.625H53.875C51.6254 80.6257 49.4587 79.7761 47.8092 78.2465C46.1597 76.7169 45.1493 74.6203 44.9806 72.3771L44.9583 71.7083V44.9583C44.9576 42.7088 45.8072 40.5421 47.3368 38.8926C48.8665 37.2431 50.963 36.2327 53.2063 36.064L53.875 36.0417H71.7083ZM27.125 53.875C29.4898 53.875 31.7578 54.8144 33.43 56.4866C35.1022 58.1588 36.0417 60.4268 36.0417 62.7917V71.7083C36.0417 74.0732 35.1022 76.3412 33.43 78.0134C31.7578 79.6856 29.4898 80.625 27.125 80.625H9.29167C6.92682 80.625 4.65883 79.6856 2.98663 78.0134C1.31443 76.3412 0.375 74.0732 0.375 71.7083V62.7917C0.375 60.4268 1.31443 58.1588 2.98663 56.4866C4.65883 54.8144 6.92682 53.875 9.29167 53.875H27.125ZM27.125 0.375C29.4898 0.375 31.7578 1.31443 33.43 2.98663C35.1022 4.65883 36.0417 6.92682 36.0417 9.29167V36.0417C36.0417 38.4065 35.1022 40.6745 33.43 42.3467C31.7578 44.0189 29.4898 44.9583 27.125 44.9583H9.29167C6.92682 44.9583 4.65883 44.0189 2.98663 42.3467C1.31443 40.6745 0.375 38.4065 0.375 36.0417V9.29167C0.375 6.92682 1.31443 4.65883 2.98663 2.98663C4.65883 1.31443 6.92682 0.375 9.29167 0.375H27.125ZM71.7083 0.375C74.0732 0.375 76.3412 1.31443 78.0134 2.98663C79.6856 4.65883 80.625 6.92682 80.625 9.29167V18.2083C80.625 20.5732 79.6856 22.8412 78.0134 24.5134C76.3412 26.1856 74.0732 27.125 71.7083 27.125H53.875C51.5102 27.125 49.2422 26.1856 47.57 24.5134C45.8978 22.8412 44.9583 20.5732 44.9583 18.2083V9.29167C44.9583 6.92682 45.8978 4.65883 47.57 2.98663C49.2422 1.31443 51.5102 0.375 53.875 0.375H71.7083Z" fill="white"/>
</svg>

<svg width="81" height="81" fill="none" xmlns="http://www.w3.org/2000/svg"><path fill-rule="evenodd" clip-rule="evenodd" d="M71.708 36.042a8.917 8.917 0 0 1 8.895 8.248l.022.668v26.75a8.917 8.917 0 0 1-8.248 8.895l-.669.022H53.875a8.917 8.917 0 0 1-8.894-8.248l-.023-.669v-26.75a8.917 8.917 0 0 1 8.248-8.894l.669-.022h17.833ZM27.125 53.875a8.917 8.917 0 0 1 8.917 8.917v8.916a8.917 8.917 0 0 1-8.917 8.917H9.292a8.917 8.917 0 0 1-8.917-8.917v-8.916a8.917 8.917 0 0 1 8.917-8.917h17.833Zm0-53.5a8.917 8.917 0 0 1 8.917 8.917v26.75a8.917 8.917 0 0 1-8.917 8.916H9.292a8.917 8.917 0 0 1-8.917-8.916V9.292A8.917 8.917 0 0 1 9.292.375h17.833Zm44.583 0a8.917 8.917 0 0 1 8.917 8.917v8.916a8.917 8.917 0 0 1-8.917 8.917H53.875a8.917 8.917 0 0 1-8.917-8.917V9.292A8.917 8.917 0 0 1 53.875.375h17.833Z" fill="#fff"/></svg>
